X: 10491
Q: "Bold martial time."
M: C|
L: 1/8
K: D
{d}f2ed {d}c2BA | F2B>^A B2zF |\
{F}A2A>B {B}A2GF | A2Bc Hd2zc |\
{c}B2AF A2A,>C | D2E>C D2z :|
|: A |\
(FA).G.F (EG).F.E | D2FA d2zf |\
{g}f2ed {d}c2BA | F2B>^A B2zF/G/ |\
(Ad)cB (AG)FG | A2Bc Hd2zg |\
f>edB {B}A2A,>C | D2E>C D2z :|


